X:1
T:Lord Thomas
M:6/8
L:1/8
K:F
 CDE FGA| F F- E/2D/2 C3|
M:9/8
 G3 Acc A/2- G3/2 F|
M:6/8
 G3 z2 G| A2 c A/2 A3/2 G| FFD CFF| A2 G F/2- F3/2 D| C3 z2 z|
